images/50878938.svg

<?xml version="1.0" encoding="UTF-8"?>
<svg xmlns="http://www.w3.org/2000/svg" xmlns:xlink="http://www.w3.org/1999/xlink" width="300pt" height="300pt" viewBox="0 0 300 300" version="1.1">
<defs>
<g>
<symbol overflow="visible" id="glyph0-0">
<path style="stroke:none;" d="M 0.453125 1.59375 L 0.453125 -6.34375 L 4.953125 -6.34375 L 4.953125 1.59375 Z M 0.953125 1.09375 L 4.453125 1.09375 L 4.453125 -5.84375 L 0.953125 -5.84375 Z M 0.953125 1.09375 "/>
</symbol>
<symbol overflow="visible" id="glyph0-1">
<path style="stroke:none;" d="M 3.546875 -5.953125 C 2.898438 -5.953125 2.382812 -5.710938 2 -5.234375 C 1.625 -4.753906 1.4375 -4.101562 1.4375 -3.28125 C 1.4375 -2.445312 1.625 -1.789062 2 -1.3125 C 2.382812 -0.832031 2.898438 -0.59375 3.546875 -0.59375 C 4.191406 -0.59375 4.703125 -0.832031 5.078125 -1.3125 C 5.453125 -1.789062 5.640625 -2.445312 5.640625 -3.28125 C 5.640625 -4.101562 5.453125 -4.753906 5.078125 -5.234375 C 4.703125 -5.710938 4.191406 -5.953125 3.546875 -5.953125 Z M 3.546875 -6.6875 C 4.460938 -6.6875 5.195312 -6.375 5.75 -5.75 C 6.300781 -5.132812 6.578125 -4.3125 6.578125 -3.28125 C 6.578125 -2.238281 6.300781 -1.410156 5.75 -0.796875 C 5.195312 -0.179688 4.460938 0.125 3.546875 0.125 C 2.617188 0.125 1.878906 -0.179688 1.328125 -0.796875 C 0.773438 -1.410156 0.5 -2.238281 0.5 -3.28125 C 0.5 -4.3125 0.773438 -5.132812 1.328125 -5.75 C 1.878906 -6.375 2.617188 -6.6875 3.546875 -6.6875 Z M 3.546875 -6.6875 "/>
</symbol>
<symbol overflow="visible" id="glyph0-2">
<path style="stroke:none;" d="M 0.890625 -6.5625 L 2.078125 -6.5625 L 4.984375 -1.078125 L 4.984375 -6.5625 L 5.84375 -6.5625 L 5.84375 0 L 4.65625 0 L 1.75 -5.484375 L 1.75 0 L 0.890625 0 Z M 0.890625 -6.5625 "/>
</symbol>
<symbol overflow="visible" id="glyph0-3">
<path style="stroke:none;" d="M 0.890625 -6.5625 L 1.765625 -6.5625 L 1.765625 -3.875 L 5 -3.875 L 5 -6.5625 L 5.890625 -6.5625 L 5.890625 0 L 5 0 L 5 -3.125 L 1.765625 -3.125 L 1.765625 0 L 0.890625 0 Z M 0.890625 -6.5625 "/>
</symbol>
</g>
</defs>
<g id="surface13381">
<rect x="0" y="0" width="300" height="300" style="fill:rgb(100%,100%,100%);fill-opacity:1;stroke:none;"/>
<path style="fill:none;stroke-width:1.2;stroke-linecap:butt;stroke-linejoin:miter;stroke:rgb(100%,0%,0%);stroke-opacity:1;stroke-miterlimit:10;" d="M 69.15625 193.402344 L 67.1875 183.023438 "/>
<path style="fill:none;stroke-width:1.2;stroke-linecap:butt;stroke-linejoin:miter;stroke:rgb(0%,0%,0%);stroke-opacity:1;stroke-miterlimit:10;" d="M 67.1875 183.023438 L 65.214844 172.648438 "/>
<path style="fill:none;stroke-width:1.2;stroke-linecap:butt;stroke-linejoin:miter;stroke:rgb(0%,0%,0%);stroke-opacity:1;stroke-miterlimit:10;" d="M 50.636719 203.566406 L 59.898438 198.484375 "/>
<path style="fill:none;stroke-width:1.2;stroke-linecap:butt;stroke-linejoin:miter;stroke:rgb(100%,0%,0%);stroke-opacity:1;stroke-miterlimit:10;" d="M 59.898438 198.484375 L 69.15625 193.402344 "/>
<path style=" stroke:none;fill-rule:nonzero;fill:rgb(100%,100%,100%);fill-opacity:1;" d="M 65.15625 187.902344 L 73.15625 187.902344 L 73.15625 198.902344 L 65.15625 198.902344 Z M 65.15625 187.902344 "/>
<g style="fill:rgb(100%,0%,0%);fill-opacity:1;">
  <use xlink:href="#glyph0-1" x="65.15625" y="196.56543"/>
</g>
<path style="fill:none;stroke-width:1.2;stroke-linecap:butt;stroke-linejoin:miter;stroke:rgb(0%,0%,0%);stroke-opacity:1;stroke-miterlimit:10;" d="M 65.214844 172.648438 L 54.734375 171.316406 "/>
<path style="fill:none;stroke-width:1.2;stroke-linecap:butt;stroke-linejoin:miter;stroke:rgb(0%,0%,100%);stroke-opacity:1;stroke-miterlimit:10;" d="M 54.734375 171.316406 L 44.257812 169.984375 "/>
<path style="fill:none;stroke-width:1.2;stroke-linecap:butt;stroke-linejoin:miter;stroke:rgb(0%,0%,0%);stroke-opacity:1;stroke-miterlimit:10;" d="M 62.492188 177.3125 L 54.109375 176.25 "/>
<path style="fill:none;stroke-width:1.2;stroke-linecap:butt;stroke-linejoin:miter;stroke:rgb(0%,0%,100%);stroke-opacity:1;stroke-miterlimit:10;" d="M 54.109375 176.25 L 45.726562 175.183594 "/>
<path style="fill:none;stroke-width:1.2;stroke-linecap:butt;stroke-linejoin:miter;stroke:rgb(0%,0%,0%);stroke-opacity:1;stroke-miterlimit:10;" d="M 65.214844 172.648438 L 79.6875 157.261719 "/>
<path style="fill:none;stroke-width:1.2;stroke-linecap:butt;stroke-linejoin:miter;stroke:rgb(0%,0%,100%);stroke-opacity:1;stroke-miterlimit:10;" d="M 44.257812 169.984375 L 35.25 189.09375 "/>
<path style=" stroke:none;fill-rule:nonzero;fill:rgb(100%,100%,100%);fill-opacity:1;" d="M 41.257812 164.484375 L 48.257812 164.484375 L 48.257812 175.484375 L 41.257812 175.484375 Z M 41.257812 164.484375 "/>
<g style="fill:rgb(0%,0%,100%);fill-opacity:1;">
  <use xlink:href="#glyph0-2" x="41.257812" y="173.147461"/>
</g>
<path style="fill:none;stroke-width:1.2;stroke-linecap:butt;stroke-linejoin:miter;stroke:rgb(0%,0%,100%);stroke-opacity:1;stroke-miterlimit:10;" d="M 35.25 189.09375 L 42.945312 196.328125 "/>
<path style="fill:none;stroke-width:1.2;stroke-linecap:butt;stroke-linejoin:miter;stroke:rgb(0%,0%,0%);stroke-opacity:1;stroke-miterlimit:10;" d="M 42.945312 196.328125 L 50.636719 203.566406 "/>
<path style="fill:none;stroke-width:1.2;stroke-linecap:butt;stroke-linejoin:miter;stroke:rgb(0%,0%,100%);stroke-opacity:1;stroke-miterlimit:10;" d="M 40.195312 186.917969 L 46.347656 192.707031 "/>
<path style="fill:none;stroke-width:1.2;stroke-linecap:butt;stroke-linejoin:miter;stroke:rgb(0%,0%,0%);stroke-opacity:1;stroke-miterlimit:10;" d="M 46.347656 192.707031 L 52.503906 198.496094 "/>
<path style=" stroke:none;fill-rule:nonzero;fill:rgb(100%,100%,100%);fill-opacity:1;" d="M 32.25 183.59375 L 39.25 183.59375 L 39.25 194.59375 L 32.25 194.59375 Z M 32.25 183.59375 "/>
<g style="fill:rgb(0%,0%,100%);fill-opacity:1;">
  <use xlink:href="#glyph0-2" x="32.25" y="192.256836"/>
</g>
<path style="fill:none;stroke-width:1.2;stroke-linecap:butt;stroke-linejoin:miter;stroke:rgb(0%,0%,0%);stroke-opacity:1;stroke-miterlimit:10;" d="M 50.636719 203.566406 L 47.976562 224.519531 "/>
<path style="fill:none;stroke-width:1.2;stroke-linecap:butt;stroke-linejoin:miter;stroke:rgb(0%,0%,0%);stroke-opacity:1;stroke-miterlimit:10;" d="M 79.6875 157.261719 L 100.25 162.097656 "/>
<path style="fill:none;stroke-width:1.2;stroke-linecap:butt;stroke-linejoin:miter;stroke:rgb(0%,0%,0%);stroke-opacity:1;stroke-miterlimit:10;" d="M 82.878906 152.90625 L 99.332031 156.777344 "/>
<path style="fill:none;stroke-width:1.2;stroke-linecap:butt;stroke-linejoin:miter;stroke:rgb(0%,0%,0%);stroke-opacity:1;stroke-miterlimit:10;" d="M 73.59375 137.03125 L 79.6875 157.261719 "/>
<path style="fill:none;stroke-width:1.2;stroke-linecap:butt;stroke-linejoin:miter;stroke:rgb(0%,0%,0%);stroke-opacity:1;stroke-miterlimit:10;" d="M 100.25 162.097656 L 114.71875 146.710938 "/>
<path style="fill:none;stroke-width:1.2;stroke-linecap:butt;stroke-linejoin:miter;stroke:rgb(0%,0%,0%);stroke-opacity:1;stroke-miterlimit:10;" d="M 114.71875 146.710938 L 135.28125 151.546875 "/>
<path style="fill:none;stroke-width:1.2;stroke-linecap:butt;stroke-linejoin:miter;stroke:rgb(0%,0%,0%);stroke-opacity:1;stroke-miterlimit:10;" d="M 114.71875 146.710938 L 108.628906 126.484375 "/>
<path style="fill:none;stroke-width:1.2;stroke-linecap:butt;stroke-linejoin:miter;stroke:rgb(0%,0%,0%);stroke-opacity:1;stroke-miterlimit:10;" d="M 109.351562 146.121094 L 104.480469 129.9375 "/>
<path style="fill:none;stroke-width:1.2;stroke-linecap:butt;stroke-linejoin:miter;stroke:rgb(0%,0%,0%);stroke-opacity:1;stroke-miterlimit:10;" d="M 108.628906 126.484375 L 88.066406 121.644531 "/>
<path style="fill:none;stroke-width:1.2;stroke-linecap:butt;stroke-linejoin:miter;stroke:rgb(0%,0%,0%);stroke-opacity:1;stroke-miterlimit:10;" d="M 108.628906 126.484375 L 123.101562 111.09375 "/>
<path style="fill:none;stroke-width:1.2;stroke-linecap:butt;stroke-linejoin:miter;stroke:rgb(0%,0%,0%);stroke-opacity:1;stroke-miterlimit:10;" d="M 88.066406 121.644531 L 73.59375 137.03125 "/>
<path style="fill:none;stroke-width:1.2;stroke-linecap:butt;stroke-linejoin:miter;stroke:rgb(0%,0%,0%);stroke-opacity:1;stroke-miterlimit:10;" d="M 90.238281 126.589844 L 78.664062 138.898438 "/>
<path style="fill:none;stroke-width:1.2;stroke-linecap:butt;stroke-linejoin:miter;stroke:rgb(0%,0%,0%);stroke-opacity:1;stroke-miterlimit:10;" d="M 123.101562 111.09375 L 143.664062 115.933594 "/>
<path style="fill:none;stroke-width:1.2;stroke-linecap:butt;stroke-linejoin:miter;stroke:rgb(0%,0%,0%);stroke-opacity:1;stroke-miterlimit:10;" d="M 126.296875 106.738281 L 142.746094 110.609375 "/>
<path style="fill:none;stroke-width:1.2;stroke-linecap:butt;stroke-linejoin:miter;stroke:rgb(0%,0%,0%);stroke-opacity:1;stroke-miterlimit:10;" d="M 117.007812 90.867188 L 123.101562 111.09375 "/>
<path style="fill:none;stroke-width:1.2;stroke-linecap:butt;stroke-linejoin:miter;stroke:rgb(0%,0%,0%);stroke-opacity:1;stroke-miterlimit:10;" d="M 143.664062 115.933594 L 158.136719 100.542969 "/>
<path style="fill:none;stroke-width:1.2;stroke-linecap:butt;stroke-linejoin:miter;stroke:rgb(0%,0%,0%);stroke-opacity:1;stroke-miterlimit:10;" d="M 158.136719 100.542969 L 152.042969 80.316406 "/>
<path style="fill:none;stroke-width:1.2;stroke-linecap:butt;stroke-linejoin:miter;stroke:rgb(0%,0%,0%);stroke-opacity:1;stroke-miterlimit:10;" d="M 152.765625 99.953125 L 147.894531 83.773438 "/>
<path style="fill:none;stroke-width:1.2;stroke-linecap:butt;stroke-linejoin:miter;stroke:rgb(0%,0%,0%);stroke-opacity:1;stroke-miterlimit:10;" d="M 158.136719 100.542969 L 178.699219 105.382812 "/>
<path style="fill:none;stroke-width:1.2;stroke-linecap:butt;stroke-linejoin:miter;stroke:rgb(0%,0%,0%);stroke-opacity:1;stroke-miterlimit:10;" d="M 152.042969 80.316406 L 131.480469 75.480469 "/>
<path style="fill:none;stroke-width:1.2;stroke-linecap:butt;stroke-linejoin:miter;stroke:rgb(0%,0%,0%);stroke-opacity:1;stroke-miterlimit:10;" d="M 131.480469 75.480469 L 117.007812 90.867188 "/>
<path style="fill:none;stroke-width:1.2;stroke-linecap:butt;stroke-linejoin:miter;stroke:rgb(0%,0%,0%);stroke-opacity:1;stroke-miterlimit:10;" d="M 133.65625 80.421875 L 122.078125 92.734375 "/>
<path style="fill:none;stroke-width:1.2;stroke-linecap:butt;stroke-linejoin:miter;stroke:rgb(0%,0%,0%);stroke-opacity:1;stroke-miterlimit:10;" d="M 117.007812 90.867188 L 96.445312 86.027344 "/>
<path style="fill:none;stroke-width:1.2;stroke-linecap:butt;stroke-linejoin:miter;stroke:rgb(0%,0%,0%);stroke-opacity:1;stroke-miterlimit:10;" d="M 180.507812 107.085938 L 187.742188 99.390625 "/>
<path style="fill:none;stroke-width:1.2;stroke-linecap:butt;stroke-linejoin:miter;stroke:rgb(100%,0%,0%);stroke-opacity:1;stroke-miterlimit:10;" d="M 187.742188 99.390625 L 194.980469 91.695312 "/>
<path style="fill:none;stroke-width:1.2;stroke-linecap:butt;stroke-linejoin:miter;stroke:rgb(0%,0%,0%);stroke-opacity:1;stroke-miterlimit:10;" d="M 176.886719 103.679688 L 184.125 95.984375 "/>
<path style="fill:none;stroke-width:1.2;stroke-linecap:butt;stroke-linejoin:miter;stroke:rgb(100%,0%,0%);stroke-opacity:1;stroke-miterlimit:10;" d="M 184.125 95.984375 L 191.359375 88.292969 "/>
<path style="fill:none;stroke-width:1.2;stroke-linecap:butt;stroke-linejoin:miter;stroke:rgb(0%,0%,0%);stroke-opacity:1;stroke-miterlimit:10;" d="M 178.699219 105.382812 L 181.742188 115.496094 "/>
<path style="fill:none;stroke-width:1.2;stroke-linecap:butt;stroke-linejoin:miter;stroke:rgb(0%,0%,100%);stroke-opacity:1;stroke-miterlimit:10;" d="M 181.742188 115.496094 L 184.789062 125.609375 "/>
<path style=" stroke:none;fill-rule:nonzero;fill:rgb(100%,100%,100%);fill-opacity:1;" d="M 189.167969 84.496094 L 197.167969 84.496094 L 197.167969 95.496094 L 189.167969 95.496094 Z M 189.167969 84.496094 "/>
<g style="fill:rgb(100%,0%,0%);fill-opacity:1;">
  <use xlink:href="#glyph0-1" x="189.167969" y="93.15918"/>
</g>
<path style="fill:none;stroke-width:1.2;stroke-linecap:butt;stroke-linejoin:miter;stroke:rgb(0%,0%,100%);stroke-opacity:1;stroke-miterlimit:10;" d="M 184.789062 125.609375 L 195.070312 128.03125 "/>
<path style="fill:none;stroke-width:1.2;stroke-linecap:butt;stroke-linejoin:miter;stroke:rgb(0%,0%,0%);stroke-opacity:1;stroke-miterlimit:10;" d="M 195.070312 128.03125 L 205.351562 130.449219 "/>
<path style=" stroke:none;fill-rule:nonzero;fill:rgb(100%,100%,100%);fill-opacity:1;" d="M 177.789062 120.109375 L 191.789062 120.109375 L 191.789062 131.109375 L 177.789062 131.109375 Z M 177.789062 120.109375 "/>
<g style="fill:rgb(0%,0%,100%);fill-opacity:1;">
  <use xlink:href="#glyph0-2" x="177.789062" y="128.772461"/>
  <use xlink:href="#glyph0-3" x="184.766602" y="128.772461"/>
</g>
<path style="fill:none;stroke-width:1.2;stroke-linecap:butt;stroke-linejoin:miter;stroke:rgb(0%,0%,0%);stroke-opacity:1;stroke-miterlimit:10;" d="M 205.351562 130.449219 L 211.441406 150.675781 "/>
<path style="fill:none;stroke-width:1.2;stroke-linecap:butt;stroke-linejoin:miter;stroke:rgb(0%,0%,0%);stroke-opacity:1;stroke-miterlimit:10;" d="M 210.71875 131.039062 L 215.59375 147.21875 "/>
<path style="fill:none;stroke-width:1.2;stroke-linecap:butt;stroke-linejoin:miter;stroke:rgb(0%,0%,0%);stroke-opacity:1;stroke-miterlimit:10;" d="M 219.824219 115.058594 L 205.351562 130.449219 "/>
<path style="fill:none;stroke-width:1.2;stroke-linecap:butt;stroke-linejoin:miter;stroke:rgb(0%,0%,0%);stroke-opacity:1;stroke-miterlimit:10;" d="M 211.441406 150.675781 L 232.003906 155.515625 "/>
<path style="fill:none;stroke-width:1.2;stroke-linecap:butt;stroke-linejoin:miter;stroke:rgb(0%,0%,0%);stroke-opacity:1;stroke-miterlimit:10;" d="M 232.003906 155.515625 L 235.050781 165.628906 "/>
<path style="fill:none;stroke-width:1.2;stroke-linecap:butt;stroke-linejoin:miter;stroke:rgb(0%,0%,100%);stroke-opacity:1;stroke-miterlimit:10;" d="M 235.050781 165.628906 L 238.097656 175.742188 "/>
<path style="fill:none;stroke-width:1.2;stroke-linecap:butt;stroke-linejoin:miter;stroke:rgb(0%,0%,0%);stroke-opacity:1;stroke-miterlimit:10;" d="M 232.003906 155.515625 L 246.476562 140.125 "/>
<path style="fill:none;stroke-width:1.2;stroke-linecap:butt;stroke-linejoin:miter;stroke:rgb(0%,0%,0%);stroke-opacity:1;stroke-miterlimit:10;" d="M 229.832031 150.570312 L 241.410156 138.257812 "/>
<path style="fill:none;stroke-width:1.2;stroke-linecap:butt;stroke-linejoin:miter;stroke:rgb(0%,0%,100%);stroke-opacity:1;stroke-miterlimit:10;" d="M 238.097656 175.742188 L 230.859375 183.4375 "/>
<path style="fill:none;stroke-width:1.2;stroke-linecap:butt;stroke-linejoin:miter;stroke:rgb(0%,0%,0%);stroke-opacity:1;stroke-miterlimit:10;" d="M 230.859375 183.4375 L 223.625 191.128906 "/>
<path style="fill:none;stroke-width:1.2;stroke-linecap:butt;stroke-linejoin:miter;stroke:rgb(0%,0%,0%);stroke-opacity:1;stroke-miterlimit:10;" d="M 258.660156 180.582031 L 248.378906 178.160156 "/>
<path style="fill:none;stroke-width:1.2;stroke-linecap:butt;stroke-linejoin:miter;stroke:rgb(0%,0%,100%);stroke-opacity:1;stroke-miterlimit:10;" d="M 248.378906 178.160156 L 238.097656 175.742188 "/>
<path style=" stroke:none;fill-rule:nonzero;fill:rgb(100%,100%,100%);fill-opacity:1;" d="M 235.097656 170.242188 L 242.097656 170.242188 L 242.097656 181.242188 L 235.097656 181.242188 Z M 235.097656 170.242188 "/>
<g style="fill:rgb(0%,0%,100%);fill-opacity:1;">
  <use xlink:href="#glyph0-2" x="235.097656" y="178.905273"/>
</g>
<path style="fill:none;stroke-width:1.2;stroke-linecap:butt;stroke-linejoin:miter;stroke:rgb(0%,0%,0%);stroke-opacity:1;stroke-miterlimit:10;" d="M 223.625 191.128906 L 229.714844 211.355469 "/>
<path style="fill:none;stroke-width:1.2;stroke-linecap:butt;stroke-linejoin:miter;stroke:rgb(0%,0%,0%);stroke-opacity:1;stroke-miterlimit:10;" d="M 229.714844 211.355469 L 239.996094 213.777344 "/>
<path style="fill:none;stroke-width:1.2;stroke-linecap:butt;stroke-linejoin:miter;stroke:rgb(100%,0%,0%);stroke-opacity:1;stroke-miterlimit:10;" d="M 239.996094 213.777344 L 250.277344 216.195312 "/>
<path style="fill:none;stroke-width:1.2;stroke-linecap:butt;stroke-linejoin:miter;stroke:rgb(100%,0%,0%);stroke-opacity:1;stroke-miterlimit:10;" d="M 250.277344 216.195312 L 257.515625 208.5 "/>
<path style="fill:none;stroke-width:1.2;stroke-linecap:butt;stroke-linejoin:miter;stroke:rgb(0%,0%,0%);stroke-opacity:1;stroke-miterlimit:10;" d="M 257.515625 208.5 L 264.75 200.808594 "/>
<path style=" stroke:none;fill-rule:nonzero;fill:rgb(100%,100%,100%);fill-opacity:1;" d="M 246.277344 210.695312 L 254.277344 210.695312 L 254.277344 221.695312 L 246.277344 221.695312 Z M 246.277344 210.695312 "/>
<g style="fill:rgb(100%,0%,0%);fill-opacity:1;">
  <use xlink:href="#glyph0-1" x="246.277344" y="219.358398"/>
</g>
<path style="fill:none;stroke-width:1.2;stroke-linecap:butt;stroke-linejoin:miter;stroke:rgb(0%,0%,0%);stroke-opacity:1;stroke-miterlimit:10;" d="M 264.75 200.808594 L 258.660156 180.582031 "/>
<path style="fill:none;stroke-width:1.2;stroke-linecap:butt;stroke-linejoin:miter;stroke:rgb(0%,0%,0%);stroke-opacity:1;stroke-miterlimit:10;" d="M 246.476562 140.125 L 240.386719 119.898438 "/>
<path style="fill:none;stroke-width:1.2;stroke-linecap:butt;stroke-linejoin:miter;stroke:rgb(0%,0%,0%);stroke-opacity:1;stroke-miterlimit:10;" d="M 240.386719 119.898438 L 219.824219 115.058594 "/>
<path style="fill:none;stroke-width:1.2;stroke-linecap:butt;stroke-linejoin:miter;stroke:rgb(0%,0%,0%);stroke-opacity:1;stroke-miterlimit:10;" d="M 237.191406 124.253906 L 220.742188 120.382812 "/>
</g>
</svg>

<svg xmlns="http://www.w3.org/2000/svg" xmlns:xlink="http://www.w3.org/1999/xlink" width="300pt" height="300pt" viewBox="0 0 300 300"><defs><symbol overflow="visible"><path d="M.453 1.594v-7.938h4.5v7.938zm.5-.5h3.5v-6.938h-3.5zm0 0"/></symbol><symbol overflow="visible" id="a"><path d="M3.547-5.953c-.65 0-1.164.242-1.547.72-.375.48-.563 1.13-.563 1.952 0 .835.188 1.49.563 1.967.383.48.898.72 1.547.72.644 0 1.156-.24 1.53-.72.376-.476.564-1.132.564-1.968 0-.822-.187-1.474-.562-1.954-.375-.477-.887-.72-1.53-.72zm0-.734c.914 0 1.648.312 2.203.937.55.617.828 1.438.828 2.47 0 1.042-.277 1.87-.828 2.483-.555.617-1.29.922-2.203.922-.93 0-1.668-.305-2.22-.922C.774-1.41.5-2.237.5-3.28c0-1.033.273-1.853.828-2.47.55-.625 1.29-.938 2.22-.938zm0 0"/></symbol><symbol overflow="visible" id="b"><path d="M.89-6.563H2.08l2.906 5.485v-5.484h.86V0H4.656L1.75-5.484V0H.89zm0 0"/></symbol><symbol overflow="visible" id="c"><path d="M.89-6.563h.876v2.688H5v-2.688h.89V0H5v-3.125H1.766V0H.89zm0 0"/></symbol></defs><g><path fill="#fff" d="M0 0h300v300H0z"/><path d="M69.156 193.402l-1.97-10.38" stroke-width="1.2" stroke="#f00" stroke-miterlimit="10" fill="none"/><path d="M67.188 183.023l-1.973-10.375M50.637 203.566l9.26-5.082" stroke-width="1.2" stroke="#000" stroke-miterlimit="10" fill="none"/><path d="M59.898 198.484l9.258-5.082" stroke-width="1.2" stroke="#f00" stroke-miterlimit="10" fill="none"/><path d="M65.156 187.902h8v11h-8zm0 0" fill="#fff"/><use xlink:href="#a" x="65.156" y="196.565" fill="#f00"/><path d="M65.215 172.648l-10.48-1.332" stroke-width="1.2" stroke="#000" stroke-miterlimit="10" fill="none"/><path d="M54.734 171.316l-10.476-1.332" stroke-width="1.2" stroke="#00f" stroke-miterlimit="10" fill="none"/><path d="M62.492 177.313l-8.383-1.063" stroke-width="1.2" stroke="#000" stroke-miterlimit="10" fill="none"/><path d="M54.11 176.25l-8.383-1.066" stroke-width="1.2" stroke="#00f" stroke-miterlimit="10" fill="none"/><path d="M65.215 172.648l14.472-15.386" stroke-width="1.2" stroke="#000" stroke-miterlimit="10" fill="none"/><path d="M44.258 169.984l-9.008 19.11" stroke-width="1.2" stroke="#00f" stroke-miterlimit="10" fill="none"/><path d="M41.258 164.484h7v11h-7zm0 0" fill="#fff"/><use xlink:href="#b" x="41.258" y="173.147" fill="#00f"/><path d="M35.25 189.094l7.695 7.234" stroke-width="1.2" stroke="#00f" stroke-miterlimit="10" fill="none"/><path d="M42.945 196.328l7.692 7.238" stroke-width="1.2" stroke="#000" stroke-miterlimit="10" fill="none"/><path d="M40.195 186.918l6.153 5.79" stroke-width="1.2" stroke="#00f" stroke-miterlimit="10" fill="none"/><path d="M46.348 192.707l6.156 5.79" stroke-width="1.2" stroke="#000" stroke-miterlimit="10" fill="none"/><path d="M32.25 183.594h7v11h-7zm0 0" fill="#fff"/><use xlink:href="#b" x="32.25" y="192.257" fill="#00f"/><path d="M50.637 203.566l-2.66 20.954M79.688 157.262l20.562 4.836M82.88 152.906l16.452 3.87M73.594 137.03l6.094 20.232M100.25 162.098l14.47-15.387M114.72 146.71l20.56 4.837M114.72 146.71l-6.09-20.226M109.352 146.12l-4.872-16.183M108.63 126.484l-20.564-4.84M108.63 126.484l14.472-15.39M88.066 121.645L73.594 137.03M90.238 126.59l-11.574 12.308M123.102 111.094l20.562 4.84M126.297 106.738l16.45 3.87M117.008 90.867l6.094 20.227M143.664 115.934l14.473-15.39M158.137 100.543l-6.094-20.227M152.766 99.953l-4.87-16.18M158.137 100.543l20.562 4.84M152.043 80.316L131.48 75.48M131.48 75.48l-14.472 15.387M133.656 80.422l-11.578 12.312M117.008 90.867l-20.563-4.84M180.508 107.086l7.234-7.695" stroke-width="1.2" stroke="#000" stroke-miterlimit="10" fill="none"/><path d="M187.742 99.39l7.238-7.695" stroke-width="1.2" stroke="#f00" stroke-miterlimit="10" fill="none"/><path d="M176.887 103.68l7.238-7.696" stroke-width="1.2" stroke="#000" stroke-miterlimit="10" fill="none"/><path d="M184.125 95.984l7.234-7.69" stroke-width="1.2" stroke="#f00" stroke-miterlimit="10" fill="none"/><path d="M178.7 105.383l3.042 10.113" stroke-width="1.2" stroke="#000" stroke-miterlimit="10" fill="none"/><path d="M181.742 115.496l3.047 10.113" stroke-width="1.2" stroke="#00f" stroke-miterlimit="10" fill="none"/><path d="M189.168 84.496h8v11h-8zm0 0" fill="#fff"/><use xlink:href="#a" x="189.168" y="93.159" fill="#f00"/><path d="M184.79 125.61l10.28 2.42" stroke-width="1.2" stroke="#00f" stroke-miterlimit="10" fill="none"/><path d="M195.07 128.03l10.282 2.42" stroke-width="1.2" stroke="#000" stroke-miterlimit="10" fill="none"/><path d="M177.79 120.11h14v11h-14zm0 0" fill="#fff"/><g fill="#00f"><use xlink:href="#b" x="177.789" y="128.772"/><use xlink:href="#c" x="184.767" y="128.772"/></g><path d="M205.352 130.45l6.09 20.226M210.72 131.04l4.874 16.18M219.824 115.06l-14.472 15.39M211.44 150.676l20.564 4.84M232.004 155.516l3.047 10.113" stroke-width="1.2" stroke="#000" stroke-miterlimit="10" fill="none"/><path d="M235.05 165.63l3.048 10.112" stroke-width="1.2" stroke="#00f" stroke-miterlimit="10" fill="none"/><path d="M232.004 155.516l14.473-15.39M229.832 150.57l11.578-12.312" stroke-width="1.2" stroke="#000" stroke-miterlimit="10" fill="none"/><path d="M238.098 175.742l-7.24 7.696" stroke-width="1.2" stroke="#00f" stroke-miterlimit="10" fill="none"/><path d="M230.86 183.438l-7.235 7.69M258.66 180.582l-10.28-2.422" stroke-width="1.2" stroke="#000" stroke-miterlimit="10" fill="none"/><path d="M248.38 178.16l-10.282-2.418" stroke-width="1.2" stroke="#00f" stroke-miterlimit="10" fill="none"/><path d="M235.098 170.242h7v11h-7zm0 0" fill="#fff"/><use xlink:href="#b" x="235.098" y="178.905" fill="#00f"/><path d="M223.625 191.13l6.09 20.225M229.715 211.355l10.28 2.422" stroke-width="1.2" stroke="#000" stroke-miterlimit="10" fill="none"/><path d="M239.996 213.777l10.28 2.418M250.277 216.195l7.24-7.695" stroke-width="1.2" stroke="#f00" stroke-miterlimit="10" fill="none"/><path d="M257.516 208.5l7.234-7.69" stroke-width="1.2" stroke="#000" stroke-miterlimit="10" fill="none"/><path d="M246.277 210.695h8v11h-8zm0 0" fill="#fff"/><use xlink:href="#a" x="246.277" y="219.358" fill="#f00"/><path d="M264.75 200.81l-6.09-20.228M246.477 140.125l-6.09-20.227M240.387 119.898l-20.563-4.84M237.19 124.254l-16.448-3.87" stroke-width="1.2" stroke="#000" stroke-miterlimit="10" fill="none"/></g></svg>
